X: 1
T:Bantry Bay
T:Little Stack of Wheat, The
T:Union Hornpipe, The
R:hornpipe
H:Also played in A, see #97
Z:id:hn-hornpipe-13
M:C|
K:G
GA|:BGAG EGDE|G2GF GBAG|EGAB cBAG|EAAG A2AB|
cecA BdBG|ABAG EGDG|BGAG EGDE|1 G2GF G2GA:|2 G2GF GABc||
|:d2ed dBGA|B2e2 e3f|gfed BGBd|(3efg fa g2ef|
gbgf efed|BedB ABGA|BGAG EGDE|1 G2GF GABc:|2 G2GF G2||
